assets/images/send-backwards.svg

<svg width='24' height='24' viewBox='0 0 24 24' xmlns='http://www.w3.org/2000/svg'>
    <g id='Backward' fill='none' fillRule='evenodd'>
        <g id='Group-2' transform='translate(2 5)' fill='#000'>
            <g id='Group' transform='translate(5.65)'>
                <path d='M11.2,4 L12,4 C12.5522847,4 13,4.44771525 13,5 L13,12 C13,12.5522847 12.5522847,13 12,13 L5,13 C4.44771525,13 4,12.5522847 4,12 L4,11.2 C4,11.0895431 4.08954305,11 4.2,11 L10,11 C10.5522847,11 11,10.5522847 11,10 L11,4.2 C11,4.08954305 11.0895431,4 11.2,4 Z'
                      id='Path' opacity='0.3' />
                <rect id='Rectangle' width='9' height='9' rx='1' />
            </g>
            <path d='M1.63200652,12.6530496 C0.222328843,10.9122427 0.348866309,8.28772591 2.79687609,6.30536668 C2.35664909,7.65266034 2.22212783,8.93254472 3.80801521,10.8909525 L5.44002173,9.56937972 L4.92263223,14.492012 L-3.01980663e-14,13.9746225 L1.63200652,12.6530496 Z'
                  id='Path' />
        </g>
    </g>
</svg>

<svg width="24" height="24" xmlns="http://www.w3.org/2000/svg"><g><g transform="translate(7.65 5)"><path d="M11.2 4h.8a1 1 0 0 1 1 1v7a1 1 0 0 1-1 1H5a1 1 0 0 1-1-1v-.8c0-.11.09-.2.2-.2H10a1 1 0 0 0 1-1V4.2c0-.11.09-.2.2-.2z" opacity=".3"/><rect width="9" height="9" rx="1"/></g><path d="M3.632 17.653c-1.41-1.74-1.283-4.365 1.165-6.348-.44 1.348-.575 2.628 1.011 4.586l1.632-1.322-.517 4.923L2 18.975l1.632-1.322z"/></g></svg>
